X:1
T:Ase's Death
T:Edvard Grieg Op. 46, N° 2
T:Ase's Death
C:Edvard Grieg Op. 46, N° 2
%%score { ( 1 3 5 ) | ( 2 4 ) }
L:1/8
Q:1/4=50
M:4/4
K:D
V:1 bass nm="Klavier" snm="Kl."
V:3 bass 
V:5 bass 
V:2 bass 
V:4 bass 
V:1
!p!"^Andante dolorso" [D,F,]2 [F,B,]2 [F,^A,C]4 | [D,F,]2 [F,B,]2 [F,^A,C]4 | D2 C2 B,2 CD | %3
 E2 D2 C3 x |!pp! [D,F,]2 [F,B,]2 !>![^E,B,C]4 | [D,F,]2 [F,B,]2 !>![^E,B,C]4 | %6
 [B,=E]2 [B,D]2 C2 [B,D][CE] | ^A,2 B,4 x2 |!<(! [A,C]2 [CF]2 [C^E^G]4!<)! | %9
!<(! [A,C]2 [CF]2 [C^E^G]4!<)! | A2 ^G2 F2 GA | B2 A2 ^G3 x | %12
"^cresc." [A,C]2!<(! [CF]2 !>![^B,F^G]4!<)! |!<(! [A,C]2 [CF]2!<)! !>![^B,F^G]4 | %14
"^cresc." [F=B]2 [FA]2 ^G2 [FA][GB] | ^E2 F4- F x |!f! [F,B,DF]2 [B,FB]2 [CFc]4 | %17
 [F,B,DF]2 [B,FB]2 [CFc]4 | [Dd]2 [Cc]2 [B,B]2 [Cc][Dd] | [Ee]2 [Dd]2 [Cc]3 x | %20
!ff! [F,B,DF]2 [B,FB]2 !>![C^EBc]4 | [F,B,DF]2 [B,FB]2 !>![C^EBc]4 | %22
 !>![=EB=e]2 !>![Dd]2 !>![Cc]2 !>![D^GBd]!>![E=Gce] | !>![^A,^A]2 !>![B,DFB]4 z2 |!p! (b2 _b2 a4) | %25
 (b2 _b2 a4) | (b2 _b2 a4) |!>(! a2 =g2!>)! f3 x | (e2 _e2 d4) | (e2 _e2 d4) | %30
!<(! (=e2 _e2 [Bd]4!<)! |!>(! d2 ^c2 B3)!>)! x | (B2 _B2"^più"!p! A4) | (=B2 _B2 A4) | %34
 (=B2 _B2 A4) |!>(! A2 =G2!>)! F3 x | (=E2 _E2 D4) | (=E2 _E2 D4) |!<(! (=E2 _E2 [B,D]4!<)! | %39
!>(! D2 ^C2!>)! B,3) z |"^dim." (D2 C2 B,3) x | (D4 C4) |!pp!!>(! B,4- B, x z2 | B,4- B,!>)! z z2 | %44
 !fermata![D,B,]8 | %45
V:2
"^col Ped." [B,,,B,,]2 [D,,B,,]2 [F,,C,]4 | [B,,,B,,]2 [D,,B,,]2 [F,,C,]4 | B,,4 B,,4 | %3
 B,,4 F,,3 x | [B,,,B,,]2 [D,,B,,]2 !>![G,,C,]4 | [B,,,B,,]2 [D,,B,,]2 !>![G,,C,]4 | %6
 [C,,C,]2 [D,,D,][E,,E,] [F,,F,]2 [E,,E,]2 | [D,,D,][C,,C,] [B,,,B,,]4 z2 | %8
 [F,,F,]2 [A,,F,]2 [C,^G,]4 | [F,,F,]2 [A,,F,]2 [C,^G,]4 | F,4 F,4 | F,4 C,3 z | %12
 [F,,F,]2 [A,,F,]2 [D,^G,]4 | [F,,F,]2 [A,,F,]2 [D,^G,]4 | %14
 [^G,,^G,]2 [A,,A,][B,,B,] [C,C]2 [B,,B,]2 | [A,,A,][^G,,^G,] [F,,F,]4- [F,,F,] z | %16
 [B,,,B,,]2 [D,,D,]2 [F,,C,^A,]4 | [B,,,B,,]2 [D,,D,]2 [F,,C,^A,]4 |!<(! B,,2 B,,2 B,,2 B,,2!<)! | %19
 B,,2 B,,2 [C,^A,]3 z |!<(! [B,,,B,,]2 [D,,D,]2!<)! [G,,C,B,]4 | %21
!<(! [B,,,B,,]2 [D,,D,]2!<)! [G,,C,B,]4 | %22
 !>![C,,B,,C,]2 !>![D,,B,,D,]!>![E,,E,] !>![F,,F,]2 !>![E,,E,]2 | %23
 !>![D,,D,]!>![C,,C,] !>![B,,,F,,B,,]4 z2 | (G4 D4) | (G4 D4) | (G4 D4 | C4 F3) z | (=C4 G,4) | %29
 (=C4 G,4) | (=C4 G,4 | F,4 B,3) z | ([G,,G,]4 [D,,D,]4) | ([G,,G,]4 [D,,D,]4) | %34
!<(! ([G,,G,]4 [D,,D,]4!<)! | [C,,C,]4 [F,,F,]3) z | ([=C,,=C,]4 [G,,,G,,]4) | %37
 ([=C,,=C,]4 [G,,,G,,]4) | ([=C,,=C,]4 [G,,,G,,]4 | [F,,,F,,]4 [B,,,B,,]3) z | %40
 [F,,,F,,]4 [B,,,B,,]3 z | [F,,,F,,]8 | F,,4- F,, x3 | F,,4- F,, x3 | !fermata![B,,,F,,]8 | %45
V:3
 x8 | x8 | D,2 E,F, G,2 F,2 | E,2 F,^G, [C,^A,]3 z | x8 | x8 | E,2 F,^G, [C,^A,]2 G,=G, | %7
 F,E, [D,F,]4 z2 | x8 | x8 | A,2 B,C D2 C2 | B,2 C^D [^G,^E]3 z | x8 | x8 | =B,2 C^D [^G,^E]2 D=D | %15
 CB, [A,C]4- [A,C] z | x8 | x8 | x2 EF G2 F2 | x2 F^G ^A3 z | x8 | x8 | x2 F^G ^A2 x2 | F!>!E x6 | %24
 ^e4 [df]4 | ^e4 [df]4 | ^e4 f4 | [B^e]4 [^A^c]3 z | A4 [GB]4 | A4 [GB]4 | ^A4 G2 F=F | %31
 [E^A]4 [DF]3 z | ^E4 F4 | ^E4 F4 | ^E4 F4 | [B,^E]4 [^A,^C]3 z | ^A,4 [G,B,]4 | ^A,4 [G,B,]4 | %38
 ^A,4 G,2 F,=F, | [E,^A,]4 [D,^F,]3 x | [E,^A,]4 [D,F,]3 z | [E,^A,]8 | D,4- D, z x2 | D,4- D, x3 | %44
 x8 | %45
V:4
 x8 | x8 | B,,,2 C,,D,, E,,2 D,,2 | C,,2 D,,E,, F,,3 z | x8 | x8 | x8 | x8 | x8 | x8 | %10
 F,,2 ^G,,A,, B,,2 A,,2 | ^G,,2 A,,B,, C,3 x | x8 | x8 | x8 | x8 | x8 | x8 | %18
 B,,,2 C,,D,, E,,2 D,,2 | C,,2 D,,E,, F,,3 x | x8 | x8 | x8 | x8 | x8 | x8 | x8 | x8 | x8 | x8 | %30
 x8 | x8 | x8 | x8 | x8 | x8 | x8 | x8 | x8 | x8 | x8 | x8 | B,,,4- B,,, z z2 | B,,,4- B,,, z z2 | %44
 x8 | %45
V:5
 x8 | x8 | x8 | x8 | x8 | x8 | x8 | x8 | x8 | x8 | x8 | x8 | x8 | x8 | x8 | x8 | x8 | x8 | x8 | %19
 x8 | x8 | x8 | x8 | x8 | B2 c2 x4 | B2 c2 x4 | B2 c2 d2 c=c | x8 | E2 F2 x4 | E2 F2 x4 | %30
 E2 F2 x4 | x8 | B,2 C2 D4 | B,2 C2 D4 | B,2 C2 D2 C=C | x8 | E,2 F,2 x4 | E,2 F,2 x4 | %38
 E,2 F,2 x4 | x8 | x8 | x8 | x8 | x8 | x8 | %45

